src/icons/hds/ui/speechbubble-text.svg

<svg xmlns="http://www.w3.org/2000/svg" width="24" height="24" viewBox="0 0 24 24">
  <g fill="none" fill-rule="evenodd">
    <rect width="24" height="24"/>
    <path fill="currentColor" d="M19,4 C21.1421954,4 22.8910789,5.68396847 22.9951047,7.80035966 L23,8 L23,16 C23,18.1421954 21.3160315,19.8910789 19.1996403,19.9951047 L19,20 L18,20 C17.0123671,20 16.1538869,20.3376865 15.3833745,21.0388386 L15.2071068,21.2071068 L14.5,21.9142136 L13.7928932,21.2071068 C13.0356707,20.4498843 12.1936483,20.0581105 11.2256414,20.0060062 L11,20 L5,20 C2.85780461,20 1.10892112,18.3160315 1.00489531,16.1996403 L1,16 L1,8 C1,5.85780461 2.68396847,4.10892112 4.80035966,4.00489531 L5,4 L19,4 Z M19,6 L5,6 C3.9456382,6 3.08183488,6.81587779 3.00548574,7.85073766 L3,8 L3,16 C3,17.0543618 3.81587779,17.9181651 4.85073766,17.9945143 L5,18 L11,18 C12.2947809,18 13.4698219,18.3968763 14.4995,19.175 C15.4056997,18.4908764 16.4232742,18.1015072 17.5357596,18.0173678 L17.8158488,18.002698 L18,18 L19,18 C20.0543618,18 20.9181651,17.1841222 20.9945143,16.1492623 L21,16 L21,8 C21,6.9456382 20.1841222,6.08183488 19.1492623,6.00548574 L19,6 Z M18,13 L18,15 L6,15 L6,13 L18,13 Z M18,9 L18,11 L6,11 L6,9 L18,9 Z"/>
  </g>
</svg>

<svg viewBox="0 0 24 24" role="img" xmlns="http://www.w3.org/2000/svg"><g fill="none" fill-rule="evenodd"><path d="M0 0h24v24H0z"/><path d="M19 4a4 4 0 013.995 3.8L23 8v8a4 4 0 01-3.8 3.995L19 20h-1c-.988 0-1.846.338-2.617 1.039l-.176.168-.707.707-.707-.707c-.757-.757-1.6-1.149-2.567-1.201L11 20H5a4 4 0 01-3.995-3.8L1 16V8a4 4 0 013.8-3.995L5 4h14zm0 2H5a2 2 0 00-1.995 1.85L3 8v8a2 2 0 001.85 1.995L5 18h6a5.68 5.68 0 013.5 1.175 5.67 5.67 0 013.036-1.158l.28-.014L18 18h1a2 2 0 001.995-1.85L21 16V8a2 2 0 00-1.85-1.995L19 6zm-1 7v2H6v-2h12zm0-4v2H6V9h12z" fill="currentColor"/></g></svg>
